src/assets/background/pack-choice.svg

<svg width="393" height="294" viewBox="0 0 393 294" fill="none" xmlns="http://www.w3.org/2000/svg">
<g id="pack-choice" clip-path="url(#clip0_4055_131)">
<g id="Vector" opacity="0.1">
<path d="M392.268 11L180 294.108H286.166L498.497 11H392.268Z" fill="url(#paint0_linear_4055_131)"/>
<path d="M522.026 11L309.758 294.108H359.302L571.633 11H522.026Z" fill="url(#paint1_linear_4055_131)"/>
</g>
<g id="Frame 36280">
<path id="add" d="M18.559 19.559L18.559 21.4783L17.9193 21.4783L17.9193 19.559L16 19.559L16 18.9193L17.9193 18.9193L17.9193 17L18.559 17L18.559 18.9193L20.4783 18.9193L20.4783 19.559L18.559 19.559Z" fill="#AB750F"/>
<path id="add_2" d="M28.5817 19.559L28.5817 21.4783L27.942 21.4783L27.942 19.559L26.0227 19.559L26.0227 18.9193L27.942 18.9193L27.942 17L28.5817 17L28.5817 18.9193L30.501 18.9193L30.501 19.559L28.5817 19.559Z" fill="#AB750F"/>
<path id="add_3" d="M38.6047 19.559L38.6047 21.4783L37.9649 21.4783L37.9649 19.559L36.0457 19.559L36.0457 18.9193L37.9649 18.9193L37.9649 17L38.6047 17L38.6047 18.9193L40.5239 18.9193L40.5239 19.559L38.6047 19.559Z" fill="#AB750F"/>
</g>
<g id="Frame 36283">
<path id="add_4" d="M350.559 269.559L350.559 271.478L349.919 271.478L349.919 269.559L348 269.559L348 268.919L349.919 268.919L349.919 267L350.559 267L350.559 268.919L352.478 268.919L352.478 269.559L350.559 269.559Z" fill="#AB750F"/>
<path id="add_5" d="M360.582 269.559L360.582 271.478L359.942 271.478L359.942 269.559L358.023 269.559L358.023 268.919L359.942 268.919L359.942 267L360.582 267L360.582 268.919L362.501 268.919L362.501 269.559L360.582 269.559Z" fill="#AB750F"/>
<path id="add_6" d="M370.605 269.559L370.605 271.478L369.965 271.478L369.965 269.559L368.046 269.559L368.046 268.919L369.965 268.919L369.965 267L370.605 267L370.605 268.919L372.524 268.919L372.524 269.559L370.605 269.559Z" fill="#AB750F"/>
</g>
</g>
<defs>
<linearGradient id="paint0_linear_4055_131" x1="418.283" y1="11" x2="418.283" y2="294.108" gradientUnits="userSpaceOnUse">
<stop stop-color="#AB750F"/>
<stop offset="0.516" stop-color="#D8A956"/>
<stop offset="1" stop-color="#AB750F" stop-opacity="0"/>
</linearGradient>
<linearGradient id="paint1_linear_4055_131" x1="418.283" y1="11" x2="418.283" y2="294.108" gradientUnits="userSpaceOnUse">
<stop stop-color="#AB750F"/>
<stop offset="0.516" stop-color="#D8A956"/>
<stop offset="1" stop-color="#AB750F" stop-opacity="0"/>
</linearGradient>
<clipPath id="clip0_4055_131">
<rect width="393" height="294" fill="white"/>
</clipPath>
</defs>
</svg>

<svg xmlns="http://www.w3.org/2000/svg" width="393" height="294" fill="none" xmlns:v="https://vecta.io/nano"><g clip-path="url(#B)"><g opacity=".1"><path d="M392.268 11L180 294.108H286.166L498.497 11H392.268Z" fill="url(#A)"/><path d="M522.026 11L309.758 294.108h49.544L571.633 11h-49.607z" fill="url(#A)"/></g><g fill="#ab750f"><path d="M18.559 19.559v1.919h-.64v-1.919H16v-.64h1.919V17h.64v1.919h1.919v.64h-1.919z"/><use href="#C"/><path d="M38.605 19.559v1.919h-.64v-1.919h-1.919v-.64h1.919V17h.64v1.919h1.919v.64h-1.919zm311.954 250v1.919h-.64v-1.919H348v-.64h1.919V267h.64v1.919h1.919v.64h-1.919z"/><use href="#D"/><path d="M370.605 269.559v1.919h-.64v-1.919h-1.919v-.64h1.919V267h.64v1.919h1.919v.64h-1.919z"/></g></g><defs><linearGradient id="A" x1="418.283" y1="11" x2="418.283" y2="294.108" gradientUnits="userSpaceOnUse"><stop stop-color="#ab750f"/><stop offset=".516" stop-color="#d8a956"/><stop offset="1" stop-color="#ab750f" stop-opacity="0"/></linearGradient><clipPath id="B"><path fill="#fff" d="M0 0h393v294H0z"/></clipPath><path id="C" d="M28.582 19.559v1.919h-.64v-1.919h-1.919v-.64h1.919V17h.64v1.919h1.919v.64h-1.919z"/><path id="D" d="M360.582 269.559v1.919h-.64v-1.919h-1.919v-.64h1.919V267h.64v1.919h1.919v.64h-1.919z"/></defs></svg>
